icons/SpeedControl.svg

<svg xmlns="http://www.w3.org/2000/svg" viewBox="0 0 24 24">
  <path d="M9.712 8.316h-.968L6.5 9.416v1.5l1.716-.852v5.62h1.5l-.004-7.368zm7.668 2h-1.56l-1.056 1.528-1.032-1.524h-1.644l1.824 2.628-1.932 2.736h1.564l1.16-1.68 1.152 1.68H17.5l-1.956-2.772 1.836-2.596z"/>
</svg>

<svg width="24" height="24" viewBox="0 0 24 24" fill="none" xmlns="http://www.w3.org/2000/svg">
<path d="M9.712 8.316H8.744L6.5 9.416V10.916L8.216 10.064V15.684H9.716L9.712 8.316ZM17.38 10.316H15.82L14.764 11.844L13.732 10.32H12.088L13.912 12.948L11.98 15.684H13.544L14.704 14.004L15.856 15.684H17.5L15.544 12.912L17.38 10.316Z" fill="black"/>
</svg>
